X: 1828
T: Around The World For Sport
M:6/8
L:1/8
B:O'Neill's 1828
Z:"Transcribed by Bob Safranek, rjs@gsp.org"
K:G
   G3    G3  | ABA  A2 G |  B3  BAG  | B2 E E2 F  |
   G3    G3  | ABA  ABc  | d2 A BAG  | F2 D D2 z :|
|: g3   e2 f | g3   e2 f | g2 e a2 g | f2 d d2 f  |
   g2 e a2 f | g2 e edc  | BcB  BAG  | F2 D D2 z :|


